SVG_Azure_All/DNS Private Resolver.svg

<?xml version="1.0" encoding="UTF-8" standalone="no"?>
<!-- Generated by Microsoft Visio, SVG Export DNS Private Resolver.svg Page-1 -->

<svg
   xmlns:dc="http://purl.org/dc/elements/1.1/"
   xmlns:cc="http://creativecommons.org/ns#"
   xmlns:rdf="http://www.w3.org/1999/02/22-rdf-syntax-ns#"
   xmlns:svg="http://www.w3.org/2000/svg"
   xmlns="http://www.w3.org/2000/svg"
   xmlns:sodipodi="http://sodipodi.sourceforge.net/DTD/sodipodi-0.dtd"
   xmlns:inkscape="http://www.inkscape.org/namespaces/inkscape"
   width="0.78735429in"
   height="0.70890135in"
   viewBox="0 0 56.689417 51.040915"
   xml:space="preserve"
   class="st5"
   version="1.1"
   id="svg40"
   sodipodi:docname="DNS Private Resolver.svg"
   style="font-size:12px;overflow:visible;color-interpolation-filters:sRGB;fill:none;fill-rule:evenodd;stroke-linecap:square;stroke-miterlimit:3"
   inkscape:version="0.92.5 (2060ec1f9f, 2020-04-08)"><metadata
   id="metadata44"><rdf:RDF><cc:Work
       rdf:about=""><dc:format>image/svg+xml</dc:format><dc:type
         rdf:resource="http://purl.org/dc/dcmitype/StillImage" /></cc:Work></rdf:RDF></metadata><sodipodi:namedview
   pagecolor="#ffffff"
   bordercolor="#666666"
   borderopacity="1"
   objecttolerance="10"
   gridtolerance="10"
   guidetolerance="10"
   inkscape:pageopacity="0"
   inkscape:pageshadow="2"
   inkscape:window-width="640"
   inkscape:window-height="480"
   id="namedview42"
   showgrid="false"
   inkscape:zoom="1.4868082"
   inkscape:cx="37.793935"
   inkscape:cy="34.019824"
   inkscape:window-x="0"
   inkscape:window-y="0"
   inkscape:window-maximized="0"
   inkscape:current-layer="svg40" />
	<style
   type="text/css"
   id="style2">
	<![CDATA[
		.st1 {fill:url(#grad0-6);stroke:none;stroke-linecap:butt;stroke-width:34}
		.st2 {fill:#5ea0ef;stroke:none;stroke-linecap:butt;stroke-width:34}
		.st3 {fill:#003067;stroke:none;stroke-linecap:butt;stroke-width:34}
		.st4 {fill:#50e6ff;stroke:none;stroke-linecap:butt;stroke-width:34}
		.st5 {fill:none;fill-rule:evenodd;font-size:12px;overflow:visible;stroke-linecap:square;stroke-miterlimit:3}
	]]>
	</style>

	<defs
   id="Patterns_And_Gradients">
		<linearGradient
   id="grad0-6"
   x1="-0.0013573983"
   y1="70.567757"
   x2="47.12628"
   y2="70.567757"
   gradientTransform="scale(0.98862154,1.0115094)"
   gradientUnits="userSpaceOnUse">
			<stop
   offset="0"
   stop-color="#0078d4"
   stop-opacity="1"
   id="stop4" />
			<stop
   offset="1"
   stop-color="#005ba1"
   stop-opacity="1"
   id="stop6" />
		</linearGradient>
	</defs>
	<g
   id="g38"
   transform="translate(-34.001161,-33.997461)">
		<title
   id="title10">Page-1</title>
		<g
   id="group5574-1"
   transform="translate(34.0003,-34.0157)">
			<title
   id="title12">DNS Private Resolver</title>
			<g
   id="group5575-2">
				<title
   id="title14">Sheet.5575</title>
				<g
   id="shape5576-3"
   transform="translate(5.19782,-1.81122)">
					<title
   id="title16">Sheet.5576</title>
					<path
   d="m 46.59,95.23 a 23.2872,23.8231 0 0 1 -23.28,23.82 23.6274,24.1711 0 0 1 -3.02,-0.2 22.6319,23.1527 0 0 1 -8.89,-3.15 l -0.25,-1.91 -0.28,-2.25 -0.19,-1.39 a 2.31548,2.36877 -180 0 0 -0.72,-1.32 2.0099,2.05616 -180 0 0 -2.62,0.16 l -0.66,0.68 -1.04,1.06 A 23.095,23.6265 0 0 1 0.03,96.07 7.39695,7.56717 0 0 1 0,95.23 23.3124,23.8488 0 0 1 23.31,71.38 a 22.8461,23.3719 0 0 1 11.8,3.33 l 0.26,1.93 0.31,2.23 0.22,1.64 a 2.11701,2.16573 -180 0 0 0.54,1.16 2.03826,2.08516 -180 0 0 1.38,0.58 1.89019,1.93369 -180 0 0 1.39,-0.58 L 41,79.83 a 22.928,23.4557 0 0 1 5.59,15.4 z"
   class="st1"
   id="path18"
   inkscape:connector-curvature="0"
   style="fill:url(#grad0-6);stroke:none;stroke-width:34;stroke-linecap:butt" />
				</g>
				<g
   id="shape5577-7"
   transform="translate(6.64696,-3.25504)">
					<title
   id="title21">Sheet.5577</title>
					<path
   d="m 39.06,82.92 a 4.60576,4.71176 -180 0 0 -0.5,-0.61 l -0.79,0.8 A 1.89019,1.93369 0 0 1 36.39,83.69 2.03826,2.08516 0 0 1 35,83.11 25.4357,26.021 0 0 1 31.38,84.14 L 31.03,84.21 30.9,83.85 A 25.5648,26.1532 -180 0 0 28.42,77.8 l -0.54,-0.94 1.01,0.39 a 19.8281,20.2844 0 0 1 5.35,3.06 L 33.93,78.09 A 22.0522,22.5597 -180 0 0 23.19,74.35 c -0.41,0 -0.89,-0.04 -1.33,-0.04 -0.44,0 -0.94,0.04 -1.32,0.04 A 21.1544,21.6412 -180 0 0 17.7,74.73 22.1026,22.6113 -180 0 0 5.42,81.92 c -0.25,0.32 -0.54,0.64 -0.79,1 A 21.6301,22.1279 -180 0 0 0,96.68 9.53601,9.75546 -180 0 0 0.06,98.1 21.5135,22.0086 -180 0 0 4.63,110.44 c 0.19,0.23 0.38,0.45 0.6,0.68 l 0.66,-0.68 a 2.0099,2.05616 0 0 1 2.62,-0.16 32.4766,33.224 0 0 1 3.84,-1.06 l 0.35,-0.1 0.09,0.36 a 25.7633,26.3562 -180 0 0 2.49,6.05 l 0.57,0.97 -1.04,-0.39 a 19.847,20.3037 0 0 1 -5.39,-3.12 l 0.28,2.25 a 22.1089,22.6177 -180 0 0 8,3.39 c 0.23,0.03 0.48,0.09 0.7,0.13 0.69,0.09 1.42,0.19 2.14,0.22 0.38,0.03 0.82,0.07 1.32,0.07 0.51,0 0.92,-0.04 1.33,-0.07 a 22.4492,22.9658 -180 0 0 2.83,-0.35 22.0207,22.5275 -180 0 0 12.26,-7.19 c 0.25,-0.32 0.53,-0.68 0.82,-1 A 21.6647,22.1633 -180 0 0 43.69,96.68 21.4411,21.9345 -180 0 0 39.06,82.92 Z m -20.73,-6.58 0.1,-0.09 0.11,-0.04 a 22.2601,22.7724 0 0 1 3.28,-0.26 23.4762,24.0164 0 0 1 3.34,0.26 l 0.12,0.03 0.07,0.1 a 19.0909,19.5303 0 0 1 3.97,7.73 l 0.12,0.42 -0.44,0.07 a 47.3965,48.4873 0 0 1 -7.15,0.54 48.14,49.2479 0 0 1 -7.18,-0.54 l -0.41,-0.07 0.12,-0.42 a 18.6845,19.1145 0 0 1 3.95,-7.73 z m -6.52,28.75 h 0.07 v 0.36 c 0.09,0.58 0.22,1.16 0.34,1.74 l 0.07,0.38 -0.38,0.07 a 36.0554,36.8851 -180 0 0 -5.64,1.77 L 5.99,109.54 5.8,109.31 A 20.2975,20.7646 0 0 1 1.73,99.03 18.4168,18.8406 0 0 1 1.61,96.68 20.3637,20.8323 0 0 1 5.8,84.05 l 0.19,-0.26 0.28,0.13 a 33.6706,34.4455 -180 0 0 5.64,1.77 l 0.38,0.1 -0.07,0.38 a 46.6562,47.7299 -180 0 0 -1.1,10.51 46.9681,48.049 -180 0 0 0.69,8.41 z M 12.35,84.14 A 28.6427,29.3018 0 0 1 7.62,82.73 l -0.56,-0.2 0.41,-0.45 a 20.4172,20.8871 0 0 1 7.34,-4.83 l 1.04,-0.39 -0.57,0.94 a 26.3713,26.9782 -180 0 0 -2.49,6.05 l -0.09,0.36 z m 1.51,23.14 -0.09,-0.38 A 45.6135,46.6632 0 0 1 12.73,96.68 45.9064,46.9629 0 0 1 13.77,86.43 l 0.09,-0.35 0.35,0.06 a 50.5689,51.7326 -180 0 0 7.65,0.61 50.8902,52.0614 -180 0 0 7.66,-0.61 l 0.35,-0.06 0.06,0.35 A 44.0099,45.0227 0 0 1 31,96.68 43.7296,44.7359 0 0 1 29.93,106.9 l -0.06,0.38 -0.35,-0.06 a 46.527,47.5978 -180 0 0 -7.66,-0.61 46.2561,47.3206 -180 0 0 -7.65,0.61 z m 11.5,9.74 -0.06,0.09 h -0.14 a 19.532,19.9815 0 0 1 -3.31,0.29 18.9996,19.4368 0 0 1 -3.31,-0.29 l -0.12,-0.04 -0.1,-0.09 a 9.98021,10.2099 0 0 1 -1.45,-1.94 20.1967,20.6615 0 0 1 -2.08,-4.48 9.8794,10.1068 0 0 1 -0.41,-1.28 l -0.12,-0.46 0.41,-0.06 a 48.1999,49.3091 0 0 1 7.18,-0.52 47.4784,48.5711 0 0 1 7.15,0.52 l 0.44,0.06 -0.12,0.46 a 18.9019,19.3369 0 0 1 -3.96,7.73 z m 10.87,-5.77 a 20.2282,20.6937 0 0 1 -7.34,4.86 l -1.01,0.39 0.54,-0.97 a 24.2574,24.8157 -180 0 0 2.48,-6.05 l 0.13,-0.36 0.35,0.1 a 32.0923,32.8308 0 0 1 4.72,1.38 l 0.54,0.23 z m 1.67,-1.94 -0.16,0.23 -0.28,-0.13 a 34.266,35.0546 -180 0 0 -5.67,-1.77 l -0.38,-0.07 0.09,-0.38 A 47.0784,48.1618 -180 0 0 32.61,96.68 46.8673,47.9458 -180 0 0 31.5,86.17 l -0.09,-0.38 0.38,-0.1 a 34.266,35.0546 -180 0 0 5.67,-1.77 l 0.25,-0.13 0.19,0.26 a 20.162,20.626 0 0 1 0,25.26 z"
   class="st2"
   id="path23"
   inkscape:connector-curvature="0"
   style="fill:#5ea0ef;stroke:none;stroke-width:34;stroke-linecap:butt" />
				</g>
				<g
   id="shape5578-9"
   transform="translate(25.237,-18.847)">
					<title
   id="title26">Sheet.5578</title>
					<path
   d="M 5.75,119.05 H 0.77 a 0.800181,0.818595 0 0 1 -0.771828,-1.06997 C 0.13,117.51 1.31,113.5 1.77,111.95 a 3.29208,3.36784 0 1 1 2.99,0 c 0.45,1.55 1.64,5.56 1.77,6.03 a 0.803331,0.821818 0 0 1 -0.774978,1.06997 z"
   class="st3"
   id="path28"
   inkscape:connector-curvature="0"
   style="fill:#003067;stroke:none;stroke-width:34;stroke-linecap:butt" />
				</g>
				<g
   id="shape5579-11">
					<title
   id="title31">Sheet.5579</title>
					<path
   d="m 56.69,93.39 a 28.1701,28.8184 0 0 1 -8.31,20.49 1.82088,1.86279 0 0 1 -1.26,0.55 1.76733,1.808 0 0 1 -1.26,-0.55 1.78623,1.82734 0 0 1 0,-2.57 24.6953,25.2637 -180 0 0 7.24,-17.92 24.3929,24.9543 -180 0 0 -6.8,-17.41 l -2.84,2.9 A 0.630064,0.644563 0 0 1 42.4204,78.52549 L 41.1,68.73 a 0.604861,0.618781 0 0 1 0.69307,-0.70902 L 51.37,69.34 a 0.630064,0.644563 0 0 1 0.346535,1.09576 L 48.85,73.37 a 28.0378,28.6831 0 0 1 7.84,20.02 z m -42.18,15.14 a 0.630064,0.644563 -180 0 0 -1.0396,-0.38674 L 10.6,111.08 a 24.7583,25.3281 0 0 1 0.21,-35.61 1.77048,1.81122 -180 0 0 0,-2.61 1.78623,1.82734 -180 0 0 -2.52,0 28.4096,29.0634 -180 0 0 -0.19,40.84 l -2.87,2.93 a 0.604861,0.618781 -180 0 0 0.346535,1.06353 L 15.15,119.05 a 0.630064,0.644563 -180 0 0 0.69307,-0.74125 z"
   class="st4"
   id="path33"
   inkscape:connector-curvature="0"
   style="fill:#50e6ff;stroke:none;stroke-width:34;stroke-linecap:butt" />
				</g>
			</g>
		</g>
	</g>
</svg>

<?xml version="1.0" encoding="UTF-8" standalone="no"?>
<!DOCTYPE svg PUBLIC "-//W3C//DTD SVG 1.1//EN" "http://www.w3.org/Graphics/SVG/1.1/DTD/svg11.dtd">
<!-- Generated by Microsoft Visio, SVG Export DNS Private Resolver.svg Page-1 -->
<svg xmlns="http://www.w3.org/2000/svg" xmlns:xlink="http://www.w3.org/1999/xlink" xmlns:ev="http://www.w3.org/2001/xml-events"
		width="1.73185in" height="1.65343in" viewBox="0 0 124.693 119.047" xml:space="preserve" color-interpolation-filters="sRGB"
		class="st5">
	<style type="text/css">
	<![CDATA[
		.st1 {fill:url(#grad0-6);stroke:none;stroke-linecap:butt;stroke-width:34}
		.st2 {fill:#5ea0ef;stroke:none;stroke-linecap:butt;stroke-width:34}
		.st3 {fill:#003067;stroke:none;stroke-linecap:butt;stroke-width:34}
		.st4 {fill:#50e6ff;stroke:none;stroke-linecap:butt;stroke-width:34}
		.st5 {fill:none;fill-rule:evenodd;font-size:12px;overflow:visible;stroke-linecap:square;stroke-miterlimit:3}
	]]>
	</style>

	<defs id="Patterns_And_Gradients">
		<linearGradient id="grad0-6" x1="0" y1="0" x2="1" y2="0" gradientTransform="rotate(90 0.5 0.5)">
			<stop offset="0" stop-color="#0078d4" stop-opacity="1"/>
			<stop offset="1" stop-color="#005ba1" stop-opacity="1"/>
		</linearGradient>
	</defs>
	<g>
		<title>Page-1</title>
		<g id="group5455-1" transform="translate(34.0003,-34.0157)">
			<title>DNS Private Resolver</title>
			<g id="group5456-2">
				<title>Sheet.5456</title>
				<g id="shape5457-3" transform="translate(5.19782,-1.81122)">
					<title>Sheet.5457</title>
					<path d="M46.59 95.23 A23.2872 23.8231 0 0 1 23.31 119.05 A23.6274 24.1711 0 0 1 20.29 118.85 A22.6319 23.1527
								 0 0 1 11.4 115.7 L11.15 113.79 L10.87 111.54 L10.68 110.15 A2.31548 2.36877 -180 0 0 9.96 108.83
								 A2.0099 2.05616 -180 0 0 7.34 108.99 L6.68 109.67 L5.64 110.73 A23.095 23.6265 0 0 1 0.03 96.07
								 A7.39695 7.56717 0 0 1 -0 95.23 A23.3124 23.8488 0 0 1 23.31 71.38 A22.8461 23.3719 0 0 1 35.11
								 74.71 L35.37 76.64 L35.68 78.87 L35.9 80.51 A2.11701 2.16573 -180 0 0 36.44 81.67 A2.03826 2.08516
								 -180 0 0 37.82 82.25 A1.89019 1.93369 -180 0 0 39.21 81.67 L41 79.83 A22.928 23.4557 0 0 1 46.59
								 95.23 Z" class="st1"/>
				</g>
				<g id="shape5458-7" transform="translate(6.64696,-3.25504)">
					<title>Sheet.5458</title>
					<path d="M39.06 82.92 A4.60576 4.71176 -180 0 0 38.56 82.31 L37.77 83.11 A1.89019 1.93369 0 0 1 36.39 83.69 A2.03826
								 2.08516 0 0 1 35 83.11 A25.4357 26.021 0 0 1 31.38 84.14 L31.03 84.21 L30.9 83.85 A25.5648 26.1532
								 -180 0 0 28.42 77.8 L27.88 76.86 L28.89 77.25 A19.8281 20.2844 0 0 1 34.24 80.31 L33.93 78.09 A22.0522
								 22.5597 -180 0 0 23.19 74.35 C22.78 74.35 22.3 74.31 21.86 74.31 C21.42 74.31 20.92 74.35 20.54
								 74.35 A21.1544 21.6412 -180 0 0 17.7 74.73 A22.1026 22.6113 -180 0 0 5.42 81.92 C5.17 82.24 4.88
								 82.56 4.63 82.92 A21.6301 22.1279 -180 0 0 0 96.68 A9.53601 9.75546 -180 0 0 0.06 98.1 A21.5135
								 22.0086 -180 0 0 4.63 110.44 C4.82 110.67 5.01 110.89 5.23 111.12 L5.89 110.44 A2.0099 2.05616 0
								 0 1 8.51 110.28 A32.4766 33.224 0 0 1 12.35 109.22 L12.7 109.12 L12.79 109.48 A25.7633 26.3562 -180
								 0 0 15.28 115.53 L15.85 116.5 L14.81 116.11 A19.847 20.3037 0 0 1 9.42 112.99 L9.7 115.24 A22.1089
								 22.6177 -180 0 0 17.7 118.63 C17.93 118.66 18.18 118.72 18.4 118.76 C19.09 118.85 19.82 118.95 20.54
								 118.98 C20.92 119.01 21.36 119.05 21.86 119.05 C22.37 119.05 22.78 119.01 23.19 118.98 A22.4492
								 22.9658 -180 0 0 26.02 118.63 A22.0207 22.5275 -180 0 0 38.28 111.44 C38.53 111.12 38.81 110.76
								 39.1 110.44 A21.6647 22.1633 -180 0 0 43.69 96.68 A21.4411 21.9345 -180 0 0 39.06 82.92 ZM18.33
								 76.34 L18.43 76.25 L18.54 76.21 A22.2601 22.7724 0 0 1 21.82 75.95 A23.4762 24.0164 0 0 1 25.16
								 76.21 L25.28 76.24 L25.35 76.34 A19.0909 19.5303 0 0 1 29.32 84.07 L29.44 84.49 L29 84.56 A47.3965
								 48.4873 0 0 1 21.85 85.1 A48.14 49.2479 0 0 1 14.67 84.56 L14.26 84.49 L14.38 84.07 A18.6845 19.1145
								 0 0 1 18.33 76.34 L18.33 76.34 ZM11.81 105.09 L11.88 105.09 L11.88 105.45 C11.97 106.03 12.1 106.61
								 12.22 107.19 L12.29 107.57 L11.91 107.64 A36.0554 36.8851 -180 0 0 6.27 109.41 L5.99 109.54 L5.8
								 109.31 A20.2975 20.7646 0 0 1 1.73 99.03 A18.4168 18.8406 0 0 1 1.61 96.68 A20.3637 20.8323 0 0
								 1 5.8 84.05 L5.99 83.79 L6.27 83.92 A33.6706 34.4455 -180 0 0 11.91 85.69 L12.29 85.79 L12.22 86.17
								 A46.6562 47.7299 -180 0 0 11.12 96.68 A46.9681 48.049 -180 0 0 11.81 105.09 L11.81 105.09 ZM12.35
								 84.14 A28.6427 29.3018 0 0 1 7.62 82.73 L7.06 82.53 L7.47 82.08 A20.4172 20.8871 0 0 1 14.81 77.25
								 L15.85 76.86 L15.28 77.8 A26.3713 26.9782 -180 0 0 12.79 83.85 L12.7 84.21 L12.35 84.14 ZM13.86
								 107.28 L13.77 106.9 A45.6135 46.6632 0 0 1 12.73 96.68 A45.9064 46.9629 0 0 1 13.77 86.43 L13.86
								 86.08 L14.21 86.14 A50.5689 51.7326 -180 0 0 21.86 86.75 A50.8902 52.0614 -180 0 0 29.52 86.14 L29.87
								 86.08 L29.93 86.43 A44.0099 45.0227 0 0 1 31 96.68 A43.7296 44.7359 0 0 1 29.93 106.9 L29.87 107.28
								 L29.52 107.22 A46.527 47.5978 -180 0 0 21.86 106.61 A46.2561 47.3206 -180 0 0 14.21 107.22 L13.86
								 107.28 ZM25.36 117.02 L25.3 117.11 L25.16 117.11 A19.532 19.9815 0 0 1 21.85 117.4 A18.9996 19.4368
								 0 0 1 18.54 117.11 L18.42 117.07 L18.32 116.98 A9.98021 10.2099 0 0 1 16.87 115.04 A20.1967 20.6615
								 0 0 1 14.79 110.56 A9.8794 10.1068 0 0 1 14.38 109.28 L14.26 108.82 L14.67 108.76 A48.1999 49.3091
								 0 0 1 21.85 108.24 A47.4784 48.5711 0 0 1 29 108.76 L29.44 108.82 L29.32 109.28 A18.9019 19.3369
								 0 0 1 25.36 117.01 L25.36 117.02 ZM36.23 111.25 A20.2282 20.6937 0 0 1 28.89 116.11 L27.88 116.5
								 L28.42 115.53 A24.2574 24.8157 -180 0 0 30.9 109.48 L31.03 109.12 L31.38 109.22 A32.0923 32.8308
								 0 0 1 36.1 110.6 L36.64 110.83 L36.23 111.25 ZM37.9 109.31 L37.74 109.54 L37.46 109.41 A34.266 35.0546
								 -180 0 0 31.79 107.64 L31.41 107.57 L31.5 107.19 A47.0784 48.1618 -180 0 0 32.61 96.68 A46.8673
								 47.9458 -180 0 0 31.5 86.17 L31.41 85.79 L31.79 85.69 A34.266 35.0546 -180 0 0 37.46 83.92 L37.71
								 83.79 L37.9 84.05 A20.162 20.626 0 0 1 37.9 109.31 Z" class="st2"/>
				</g>
				<g id="shape5459-9" transform="translate(25.237,-18.847)">
					<title>Sheet.5459</title>
					<path d="M5.75 119.05 L0.77 119.05 a0.800181 0.818595 0 0 1 -0.771828 -1.06997 C0.13 117.51 1.31 113.5 1.77 111.95
								 A3.29208 3.36784 0 1 1 4.76 111.95 C5.21 113.5 6.4 117.51 6.53 117.98 a0.803331 0.821818 0 0 1 -0.774978
								 1.06997 Z" class="st3"/>
				</g>
				<g id="shape5460-11">
					<title>Sheet.5460</title>
					<path d="M56.69 93.39 A28.1701 28.8184 0 0 1 48.38 113.88 A1.82088 1.86279 0 0 1 47.12 114.43 A1.76733 1.808
								 0 0 1 45.86 113.88 A1.78623 1.82734 0 0 1 45.86 111.31 A24.6953 25.2637 -180 0 0 53.1 93.39 A24.3929
								 24.9543 -180 0 0 46.3 75.98 L43.46 78.88 a0.630064 0.644563 0 0 1 -1.0396 -0.35451 L41.1 68.73 a0.604861
								 0.618781 0 0 1 0.69307 -0.70902 L51.37 69.34 a0.630064 0.644563 0 0 1 0.346535 1.09576 L48.85 73.37
								 A28.0378 28.6831 0 0 1 56.69 93.39 ZM14.51 108.53 a0.630064 0.644563 -180 0 0 -1.0396 -0.386738
								 L10.6 111.08 A24.7583 25.3281 0 0 1 10.81 75.47 A1.77048 1.81122 -180 0 0 10.81 72.86 A1.78623 1.82734
								 -180 0 0 8.29 72.86 A28.4096 29.0634 -180 0 0 8.1 113.7 L5.23 116.63 a0.604861 0.618781 -180 0 0
								 0.346535 1.06353 L15.15 119.05 a0.630064 0.644563 -180 0 0 0.69307 -0.741248 L14.51 108.53 Z"
							class="st4"/>
				</g>
			</g>
		</g>
	</g>
</svg>
